Komodo/status/scalable/media-playlist-shuffle-symbolic.svg

<?xml version="1.0" encoding="UTF-8" standalone="no"?>
<!-- Created with Inkscape (http://www.inkscape.org/) -->

<svg
   xmlns:dc="http://purl.org/dc/elements/1.1/"
   xmlns:cc="http://creativecommons.org/ns#"
   xmlns:rdf="http://www.w3.org/1999/02/22-rdf-syntax-ns#"
   xmlns:svg="http://www.w3.org/2000/svg"
   xmlns="http://www.w3.org/2000/svg"
   xmlns:sodipodi="http://sodipodi.sourceforge.net/DTD/sodipodi-0.dtd"
   xmlns:inkscape="http://www.inkscape.org/namespaces/inkscape"
   width="16"
   height="16"
   id="svg2"
   sodipodi:version="0.32"
   inkscape:version="0.48.1 r9760"
   version="1.0"
   sodipodi:docname="media-playlist-shuffle-symbolic.svg"
   inkscape:output_extension="org.inkscape.output.svg.inkscape">
  <defs
     id="defs4" />
  <sodipodi:namedview
     id="base"
     pagecolor="#ffffff"
     bordercolor="#e7e7e7"
     borderopacity="1"
     inkscape:pageopacity="0.0"
     inkscape:pageshadow="2"
     inkscape:zoom="24.711919"
     inkscape:cx="-8.3377926"
     inkscape:cy="6.3085737"
     inkscape:document-units="px"
     inkscape:current-layer="layer1"
     showgrid="true"
     inkscape:showpageshadow="false"
     showguides="true"
     inkscape:guide-bbox="true"
     inkscape:window-width="1920"
     inkscape:window-height="1022"
     inkscape:window-x="0"
     inkscape:window-y="25"
     inkscape:window-maximized="1"
     inkscape:snap-global="true">
    <sodipodi:guide
       orientation="1,0"
       position="0,112"
       id="guide2383" />
    <sodipodi:guide
       orientation="0,1"
       position="78.156291,0"
       id="guide2389" />
    <inkscape:grid
       type="xygrid"
       id="grid3672"
       visible="true"
       enabled="true" />
    <sodipodi:guide
       orientation="1,0"
       position="22.008699,4.1542523"
       id="guide2950" />
    <sodipodi:guide
       orientation="0,1"
       position="11.22532,22.008699"
       id="guide2952" />
  </sodipodi:namedview>
  <metadata
     id="metadata7">
    <rdf:RDF>
      <cc:Work
         rdf:about="">
        <dc:format>image/svg+xml</dc:format>
        <dc:type
           rdf:resource="http://purl.org/dc/dcmitype/StillImage" />
        <dc:title></dc:title>
      </cc:Work>
    </rdf:RDF>
  </metadata>
  <g
     inkscape:label="Calque 1"
     inkscape:groupmode="layer"
     id="layer1">
    <path
       style="fill:#bebebe;fill-opacity:1;fill-rule:nonzero;stroke:none"
       d="M 11 2 L 11 4 L 9.96875 4 C 6.3947226 4 5.8310276 6.5060606 3.71875 8.3125 C 3.2083271 8.7490184 2.7308302 9 1.96875 9 L 1 9 L 1 11 L 1.96875 11 C 3.2252602 11 4.2683973 10.495296 5.03125 9.8125 C 6.8240228 8.2078687 7.6024917 6 9.96875 6 L 11 6 L 11 8 L 15 5 L 11 2 z M 11 8 L 11 10 L 9.96875 10 C 8.8449703 10 8.0925133 9.4760923 7.40625 8.78125 C 7.0231839 9.2453484 6.5865486 9.7318264 6.0625 10.25 C 6.9643279 11.230124 8.0067358 12 9.96875 12 L 11 12 L 11 14 L 15 11 L 11 8 z M 1 5 L 1 7 L 1.96875 7 C 2.4826298 7 2.8663177 7.1355749 3.21875 7.34375 C 3.6997199 6.8965985 4.1166542 6.3778221 4.5625 5.84375 C 3.8585498 5.3510795 2.9915493 5 1.96875 5 L 1 5 z "
       id="path3042" />
  </g>
</svg>

<?xml version="1.0" encoding="UTF-8" standalone="no"?>
<!-- Created with Inkscape (http://www.inkscape.org/) -->
<svg id="svg2" xmlns:rdf="http://www.w3.org/1999/02/22-rdf-syntax-ns#" xmlns="http://www.w3.org/2000/svg" height="16" width="16" version="1.0" xmlns:cc="http://creativecommons.org/ns#" xmlns:dc="http://purl.org/dc/elements/1.1/">
 <metadata id="metadata7">
  <rdf:RDF>
   <cc:Work rdf:about="">
    <dc:format>image/svg+xml</dc:format>
    <dc:type rdf:resource="http://purl.org/dc/dcmitype/StillImage"/>
    <dc:title/>
   </cc:Work>
  </rdf:RDF>
 </metadata>
 <g id="layer1">
  <path id="path3042" style="fill:#bebebe" d="m11 2v2h-1.0312c-3.5741 0-4.1378 2.5061-6.25 4.3125-0.5105 0.4365-0.988 0.6875-1.75 0.6875h-0.9688v2h0.9688c1.2565 0 2.2996-0.505 3.0624-1.1875 1.7928-1.6046 2.5713-3.8125 4.9376-3.8125h1.0312v2l4-3-4-3zm0 6v2h-1.0312c-1.1238 0-1.8763-0.5239-2.5626-1.2188-0.383 0.4641-0.8197 0.9506-1.3437 1.4688 0.9018 0.98 1.9442 1.75 3.9063 1.75h1.0312v2l4-3-4-3zm-10-3v2h0.9688c0.5138 0 0.8975 0.1356 1.25 0.3438 0.4809-0.4472 0.8979-0.966 1.3437-1.5-0.704-0.4927-1.571-0.8438-2.5937-0.8438h-0.9688z"/>
 </g>
</svg>
